Newaita-dark/apps/64/com.github.artemanufrij.findfileconflicts.svg

<svg height="64" viewBox="0 0 64 64" width="64" xmlns="http://www.w3.org/2000/svg" xmlns:xlink="http://www.w3.org/1999/xlink"><linearGradient id="a"><stop offset="0" stop-opacity=".313726"/><stop offset=".222222" stop-opacity=".27451"/><stop offset="1" stop-opacity="0"/></linearGradient><radialGradient id="b" cx="450.908936" cy="189.579361" gradientTransform="matrix(.00000035 -.156265 -.281277 -.0000002 89.046304 127.190659)" gradientUnits="userSpaceOnUse" r="21.166656" xlink:href="#a"/><radialGradient id="c" cx="450.908936" cy="189.579361" gradientTransform="matrix(-.00000035 .156265 .281277 .0000002 -25.540237 -15.054964)" gradientUnits="userSpaceOnUse" r="21.166656" xlink:href="#a"/><radialGradient id="d" cx="450.908936" cy="189.579361" gradientTransform="matrix(-.00000035 -.156265 .281277 -.0000002 -25.540237 127.190659)" gradientUnits="userSpaceOnUse" r="21.166656" xlink:href="#a"/><radialGradient id="e" cx="450.908936" cy="189.579361" gradientTransform="matrix(.00000035 .156265 -.281277 .0000002 89.0463 -15.054965)" gradientUnits="userSpaceOnUse" r="21.166656" xlink:href="#a"/><linearGradient id="f" gradientTransform="matrix(.0267201 0 0 .125012 24.930772 26.877567)" gradientUnits="userSpaceOnUse" x1="255.323059" x2="255.323044" y1="233.5" y2="254.666656"><stop offset="0" stop-opacity=".27451"/><stop offset="1" stop-opacity="0"/></linearGradient><linearGradient id="g" gradientUnits="userSpaceOnUse" x1="31.753048" x2="31.753048" y1="5.79220799994" y2="56.067868"><stop offset="0" stop-color="#ff8a65"/><stop offset="1" stop-color="#ff7043"/></linearGradient><linearGradient id="h" gradientTransform="matrix(.0619382 .10728 -.10728 .0619382 19.54097 1.641741)" gradientUnits="userSpaceOnUse" x1="344.628418" x2="163.846085" y1="123.740433" y2="-57.04192"><stop offset="0" stop-color="#ffa726"/><stop offset="1" stop-color="#ffb74d"/></linearGradient><linearGradient id="i" gradientUnits="userSpaceOnUse" x1="31.753048" x2="31.753048" y1="56.067868" y2="5.79220799994"><stop offset="0" stop-color="#424242"/><stop offset="1" stop-color="#616161"/></linearGradient><linearGradient id="j" gradientTransform="matrix(-.125012 0 0 .125012 63.506061 26.877566)" gradientUnits="userSpaceOnUse" x1="254" x2="254" y1="233.5" y2="-168.666672"><stop offset="0" stop-color="#bdbdbd"/><stop offset="1" stop-color="#e0e0e0"/></linearGradient><path d="m36.382812 56.066406h5.292969v-2.644531h-5.292969zm0 0" fill="url(#b)"/><path d="m27.121094 56.066406h-5.289063v2.648438h5.289063zm0 0" fill="url(#c)"/><path d="m27.121094 56.066406h-5.289063v-2.644531h5.289063zm0 0" fill="url(#d)"/><path d="m36.382812 56.066406h5.292969v2.648438h-5.292969zm0 0" fill="url(#e)"/><path d="m27.121094 55.40625h9.261718v3.308594h-9.261718zm0 0" fill="url(#f)"/><path d="m31.753906 5.792969c13.882813 0 25.136719 11.253906 25.136719 25.136719 0 13.882812-11.253906 25.136718-25.136719 25.136718-13.882812 0-25.140625-11.253906-25.140625-25.136718 0-13.882813 11.257813-25.136719 25.140625-25.136719zm0 0" fill="url(#g)"/><path d="m31.753906 56.066406c-13.925781 0-25.140625-11.210937-25.140625-25.136718 0-.082032.003907-.164063.003907-.246094.128906 13.8125 11.292968 24.890625 25.136718 24.890625s25.003906-11.078125 25.136719-24.890625v.246094c0 13.925781-11.210937 25.136718-25.136719 25.136718zm0 0" fill-opacity=".196078"/><path d="m31.753906 5.792969c-13.925781 0-25.140625 11.210937-25.140625 25.136719 0 .082031.003907.164062.003907.246093.128906-13.8125 11.292968-24.890625 25.136718-24.890625s25.003906 11.078125 25.136719 24.890625c0-.082031 0-.164062 0-.246093 0-13.925782-11.210937-25.136719-25.136719-25.136719zm0 0" fill="#fff" fill-opacity=".392157"/><path d="m20.441406 37.453125c-.492187-.851563 4.398438-4.089844 4.195313-5.054687-.207031-.960938-5.992188-1.929688-5.886719-2.910157.101562-.980469 5.960938-.722656 6.363281-1.625.398438-.898437-3.710937-5.082031-3.050781-5.8125.65625-.734375 5.246094 2.917969 6.101562 2.425781.851563-.492187-.015624-6.292968.949219-6.5.964844-.203124 2.53125 5.449219 3.511719 5.550782.976562.105468 3.6875-5.097656 4.585938-4.699219.898437.402344-1.152344 5.894531-.421876 6.554687.730469.660157 5.980469-1.957031 6.472657-1.105468.492187.855468-4.398438 4.089844-4.191407 5.054687.203126.964844 5.988282 1.929688 5.886719 2.910157-.105469.980468-5.964843.726562-6.363281 1.625-.402344.898437 3.710938 5.082031 3.050781 5.816406-.660156.730468-5.25-2.921875-6.101562-2.429688-.855469.496094.011719 6.296875-.953125 6.5-.960938.203125-2.527344-5.445312-3.507813-5.550781-.980469-.101563-3.6875 5.101563-4.589843 4.699219-.898438-.402344 1.15625-5.894532.421874-6.554688-.730468-.65625-5.980468 1.960938-6.472656 1.105469zm0 0" fill="url(#h)"/><path d="m31.753906 5.605469c-14.027344 0-25.328125 11.296875-25.328125 25.324219 0 14.027343 11.300781 25.324218 25.328125 25.324218s25.324219-11.296875 25.324219-25.324218c0-14.027344-11.296875-25.324219-25.324219-25.324219zm0 .375c13.824219 0 24.949219 11.125 24.949219 24.949219 0 13.824218-11.125 24.949218-24.949219 24.949218-13.828125 0-24.953125-11.125-24.953125-24.949218 0-13.824219 11.125-24.949219 24.953125-24.949219zm0 0" fill="#212121"/><path d="m18.484375 19.027344c-.710937.015625-1.285156.597656-1.285156 1.316406v3.972656h-11.082031c-.539063 2.113282-.824219 4.328125-.824219 6.613282 0 2.285156.285156 4.5.824219 6.613281h11.082031v3.972656c0 1.136719 1.347656 1.742187 2.199219.984375l11.90625-10.582031c.589843-.527344.589843-1.449219 0-1.976563l-11.90625-10.582031c-.234376-.207031-.53125-.324219-.84375-.332031-.023438-.003906-.046876-.003906-.070313 0zm0 0" fill="url(#i)"/><path d="m45.019531 19.027344c-.023437-.003906-.046875-.003906-.070312 0-.308594.007812-.609375.125-.839844.332031l-11.910156 10.582031c-.589844.527344-.589844 1.449219 0 1.976563l11.910156 10.582031c.851563.757812 2.195313.152344 2.195313-.984375v-3.972656h11.082031c.539062-2.113281.828125-4.328125.828125-6.613281 0-2.285157-.289063-4.5-.828125-6.613282h-11.082031v-3.972656c0-.71875-.574219-1.300781-1.285157-1.316406zm0 0" fill="url(#j)"/><path d="m18.484375 19.027344c-.710937.015625-1.285156.597656-1.285156 1.316406v.992188c0-.71875.574219-1.304688 1.285156-1.320313h.070313c.3125.007813.609374.125.84375.332031l11.90625 10.585938c.160156.140625.273437.308594.347656.492187.203125-.5.085937-1.097656-.347656-1.484375l-11.90625-10.582031c-.234376-.207031-.53125-.324219-.84375-.332031-.023438-.003906-.046876-.003906-.070313 0zm-12.367187 5.289062c-.539063 2.113282-.824219 4.328125-.824219 6.613282 0 .164062 0 .332031.003906.496093.039063-2.113281.320313-4.160156.820313-6.121093h11.082031v-.988282zm0 0" fill="#efefef" fill-opacity=".313726"/><path d="m45.019531 19.027344c-.023437-.003906-.046875-.003906-.070312 0-.308594.007812-.609375.125-.839844.332031l-11.910156 10.582031c-.429688.386719-.546875.984375-.347657 1.484375.074219-.183593.191407-.351562.347657-.492187l11.910156-10.585938c.230469-.207031.53125-.324218.839844-.332031h.070312c.710938.015625 1.285157.601563 1.285157 1.320313v-.992188c0-.71875-.574219-1.300781-1.285157-1.316406zm1.285157 5.289062v.988282h11.082031c.5 1.960937.785156 4.007812.824219 6.121093 0-.164062.003906-.332031.003906-.496093 0-2.285157-.289063-4.5-.828125-6.613282zm0 0" fill="#efefef"/><path d="m31.570312 31.59375c-.066406.117188-.15625.230469-.265624.324219l-11.90625 10.585937c-.851563.757813-2.199219.152344-2.199219-.988281v1.324219c0 1.140625 1.347656 1.742187 2.199219.988281l11.90625-10.585937c.484374-.429688.570312-1.121094.265624-1.648438zm-24.082031 5.953125c.121094.445313.253907.886719.398438 1.320313h9.3125v-1.320313zm0 0" fill-opacity=".235294"/><path d="m31.933594 31.59375c-.304688.527344-.214844 1.21875.265625 1.648438l11.910156 10.585937c.851563.753906 2.195313.152344 2.195313-.988281v-1.324219c0 1.140625-1.34375 1.746094-2.195313.988281l-11.910156-10.585937c-.105469-.09375-.195313-.207031-.265625-.324219zm14.371094 5.953125v1.320313h9.316406c.144531-.433594.277344-.875.398437-1.320313zm0 0" fill-opacity=".235294"/><g fill="none" stroke="#212121" stroke-linecap="round" stroke-linejoin="round" stroke-opacity=".954839"><path d="m558.8443 575.260056c-21.494011.472396-38.854559 18.069142-38.854559 39.799351v120.106647h-335.046763c-16.297657 63.89154-24.918881 130.853653-24.918881 199.941547s8.621224 136.050007 24.918881 199.941547h335.046763v120.106647c0 34.366799 40.744143 52.672138 66.489717 29.760939l359.965644-319.930095c17.832943-15.94336 17.832943-43.814716 0-59.758076l-359.965644-319.930095c-7.085938-6.259245-16.061459-9.802214-25.509376-10.038412-.708594-.118099-1.417188-.118099-2.125782 0zm0 0" stroke-width="11.338583" transform="scale(.0330761)"/><path d="m360.12186-62.795785c5.686957.124988 10.280268 4.780794 10.280268 10.530245v31.778215h88.647785c4.312088 16.904636 6.624367 34.621694 6.624367 52.901198 0 18.279505-2.312279 35.996563-6.624367 52.901198h-88.647785v31.778216c0 9.092881-10.748973 13.936169-17.560823 7.874248l-95.272152-84.648167c-4.718299-4.218347-4.718299-11.592643 0-15.81099l95.272152-84.648166c1.843574-1.656092 4.249595-2.593503 6.718109-2.655997.187482-.031247.374964-.031247.562446 0zm0 0" stroke-width="3" transform="matrix(.125012 0 0 .125012 0 26.877566)"/></g></svg>

<?xml version="1.0" encoding="UTF-8"?>
<svg xmlns="http://www.w3.org/2000/svg" xmlns:xlink="http://www.w3.org/1999/xlink" width="64px" height="64px" viewBox="0 0 64 64" version="1.1">
<defs>
<radialGradient id="radial0" gradientUnits="userSpaceOnUse" cx="450.908936" cy="189.579361" fx="450.908936" fy="189.579361" r="21.166656" gradientTransform="matrix(0.000000348341,-0.156265,-0.281277,-0.000000203077,89.046304,127.190659)">
<stop offset="0" style="stop-color:rgb(0%,0%,0%);stop-opacity:0.313726;"/>
<stop offset="0.222222" style="stop-color:rgb(0%,0%,0%);stop-opacity:0.27451;"/>
<stop offset="1" style="stop-color:rgb(0%,0%,0%);stop-opacity:0;"/>
</radialGradient>
<radialGradient id="radial1" gradientUnits="userSpaceOnUse" cx="450.908936" cy="189.579361" fx="450.908936" fy="189.579361" r="21.166656" gradientTransform="matrix(-0.000000348341,0.156265,0.281277,0.000000203077,-25.540237,-15.054964)">
<stop offset="0" style="stop-color:rgb(0%,0%,0%);stop-opacity:0.313726;"/>
<stop offset="0.222222" style="stop-color:rgb(0%,0%,0%);stop-opacity:0.27451;"/>
<stop offset="1" style="stop-color:rgb(0%,0%,0%);stop-opacity:0;"/>
</radialGradient>
<radialGradient id="radial2" gradientUnits="userSpaceOnUse" cx="450.908936" cy="189.579361" fx="450.908936" fy="189.579361" r="21.166656" gradientTransform="matrix(-0.000000348341,-0.156265,0.281277,-0.000000203077,-25.540237,127.190659)">
<stop offset="0" style="stop-color:rgb(0%,0%,0%);stop-opacity:0.313726;"/>
<stop offset="0.222222" style="stop-color:rgb(0%,0%,0%);stop-opacity:0.27451;"/>
<stop offset="1" style="stop-color:rgb(0%,0%,0%);stop-opacity:0;"/>
</radialGradient>
<radialGradient id="radial3" gradientUnits="userSpaceOnUse" cx="450.908936" cy="189.579361" fx="450.908936" fy="189.579361" r="21.166656" gradientTransform="matrix(0.000000348341,0.156265,-0.281277,0.000000203077,89.0463,-15.054965)">
<stop offset="0" style="stop-color:rgb(0%,0%,0%);stop-opacity:0.313726;"/>
<stop offset="0.222222" style="stop-color:rgb(0%,0%,0%);stop-opacity:0.27451;"/>
<stop offset="1" style="stop-color:rgb(0%,0%,0%);stop-opacity:0;"/>
</radialGradient>
<linearGradient id="linear0" gradientUnits="userSpaceOnUse" x1="255.323059" y1="233.5" x2="255.323044" y2="254.666656" gradientTransform="matrix(0.0267201,0,0,0.125012,24.930772,26.877567)">
<stop offset="0" style="stop-color:rgb(0%,0%,0%);stop-opacity:0.27451;"/>
<stop offset="1" style="stop-color:rgb(0%,0%,0%);stop-opacity:0;"/>
</linearGradient>
<linearGradient id="linear1" gradientUnits="userSpaceOnUse" x1="254" y1="-168.666672" x2="254" y2="233.5" gradientTransform="matrix(0.125012,0,0,0.125012,0,26.877566)">
<stop offset="0" style="stop-color:rgb(100%,54.11765%,39.607844%);stop-opacity:1;"/>
<stop offset="1" style="stop-color:rgb(100%,43.921569%,26.274511%);stop-opacity:1;"/>
</linearGradient>
<linearGradient id="linear2" gradientUnits="userSpaceOnUse" x1="344.628418" y1="123.740433" x2="163.846085" y2="-57.04192" gradientTransform="matrix(0.0619382,0.10728,-0.10728,0.0619382,19.54097,1.641741)">
<stop offset="0" style="stop-color:rgb(100%,65.490198%,14.901961%);stop-opacity:1;"/>
<stop offset="1" style="stop-color:rgb(100%,71.764708%,30.19608%);stop-opacity:1;"/>
</linearGradient>
<linearGradient id="linear3" gradientUnits="userSpaceOnUse" x1="254" y1="233.5" x2="254" y2="-168.666672" gradientTransform="matrix(0.125012,0,0,0.125012,0,26.877566)">
<stop offset="0" style="stop-color:rgb(25.882354%,25.882354%,25.882354%);stop-opacity:1;"/>
<stop offset="1" style="stop-color:rgb(38.039216%,38.039216%,38.039216%);stop-opacity:1;"/>
</linearGradient>
<linearGradient id="linear4" gradientUnits="userSpaceOnUse" x1="254" y1="233.5" x2="254" y2="-168.666672" gradientTransform="matrix(-0.125012,0,0,0.125012,63.506061,26.877566)">
<stop offset="0" style="stop-color:rgb(74.117649%,74.117649%,74.117649%);stop-opacity:1;"/>
<stop offset="1" style="stop-color:rgb(87.843138%,87.843138%,87.843138%);stop-opacity:1;"/>
</linearGradient>
</defs>
<g id="surface1">
<path style=" stroke:none;fill-rule:nonzero;fill:url(#radial0);" d="M 36.382812 56.066406 L 41.675781 56.066406 L 41.675781 53.421875 L 36.382812 53.421875 Z M 36.382812 56.066406 "/>
<path style=" stroke:none;fill-rule:nonzero;fill:url(#radial1);" d="M 27.121094 56.066406 L 21.832031 56.066406 L 21.832031 58.714844 L 27.121094 58.714844 Z M 27.121094 56.066406 "/>
<path style=" stroke:none;fill-rule:nonzero;fill:url(#radial2);" d="M 27.121094 56.066406 L 21.832031 56.066406 L 21.832031 53.421875 L 27.121094 53.421875 Z M 27.121094 56.066406 "/>
<path style=" stroke:none;fill-rule:nonzero;fill:url(#radial3);" d="M 36.382812 56.066406 L 41.675781 56.066406 L 41.675781 58.714844 L 36.382812 58.714844 Z M 36.382812 56.066406 "/>
<path style=" stroke:none;fill-rule:nonzero;fill:url(#linear0);" d="M 27.121094 55.40625 L 36.382812 55.40625 L 36.382812 58.714844 L 27.121094 58.714844 Z M 27.121094 55.40625 "/>
<path style=" stroke:none;fill-rule:nonzero;fill:url(#linear1);" d="M 31.753906 5.792969 C 45.636719 5.792969 56.890625 17.046875 56.890625 30.929688 C 56.890625 44.8125 45.636719 56.066406 31.753906 56.066406 C 17.871094 56.066406 6.613281 44.8125 6.613281 30.929688 C 6.613281 17.046875 17.871094 5.792969 31.753906 5.792969 Z M 31.753906 5.792969 "/>
<path style=" stroke:none;fill-rule:nonzero;fill:rgb(0%,0%,0%);fill-opacity:0.196078;" d="M 31.753906 56.066406 C 17.828125 56.066406 6.613281 44.855469 6.613281 30.929688 C 6.613281 30.847656 6.617188 30.765625 6.617188 30.683594 C 6.746094 44.496094 17.910156 55.574219 31.753906 55.574219 C 45.597656 55.574219 56.757812 44.496094 56.890625 30.683594 C 56.890625 30.765625 56.890625 30.847656 56.890625 30.929688 C 56.890625 44.855469 45.679688 56.066406 31.753906 56.066406 Z M 31.753906 56.066406 "/>
<path style=" stroke:none;fill-rule:nonzero;fill:rgb(100%,100%,100%);fill-opacity:0.392157;" d="M 31.753906 5.792969 C 17.828125 5.792969 6.613281 17.003906 6.613281 30.929688 C 6.613281 31.011719 6.617188 31.09375 6.617188 31.175781 C 6.746094 17.363281 17.910156 6.285156 31.753906 6.285156 C 45.597656 6.285156 56.757812 17.363281 56.890625 31.175781 C 56.890625 31.09375 56.890625 31.011719 56.890625 30.929688 C 56.890625 17.003906 45.679688 5.792969 31.753906 5.792969 Z M 31.753906 5.792969 "/>
<path style=" stroke:none;fill-rule:nonzero;fill:url(#linear2);" d="M 20.441406 37.453125 C 19.949219 36.601562 24.839844 33.363281 24.636719 32.398438 C 24.429688 31.4375 18.644531 30.46875 18.75 29.488281 C 18.851562 28.507812 24.710938 28.765625 25.113281 27.863281 C 25.511719 26.964844 21.402344 22.78125 22.0625 22.050781 C 22.71875 21.316406 27.308594 24.96875 28.164062 24.476562 C 29.015625 23.984375 28.148438 18.183594 29.113281 17.976562 C 30.078125 17.773438 31.644531 23.425781 32.625 23.527344 C 33.601562 23.632812 36.3125 18.429688 37.210938 18.828125 C 38.109375 19.230469 36.058594 24.722656 36.789062 25.382812 C 37.519531 26.042969 42.769531 23.425781 43.261719 24.277344 C 43.753906 25.132812 38.863281 28.367188 39.070312 29.332031 C 39.273438 30.296875 45.058594 31.261719 44.957031 32.242188 C 44.851562 33.222656 38.992188 32.96875 38.59375 33.867188 C 38.191406 34.765625 42.304688 38.949219 41.644531 39.683594 C 40.984375 40.414062 36.394531 36.761719 35.542969 37.253906 C 34.6875 37.75 35.554688 43.550781 34.589844 43.753906 C 33.628906 43.957031 32.0625 38.308594 31.082031 38.203125 C 30.101562 38.101562 27.394531 43.304688 26.492188 42.902344 C 25.59375 42.5 27.648438 37.007812 26.914062 36.347656 C 26.183594 35.691406 20.933594 38.308594 20.441406 37.453125 Z M 20.441406 37.453125 "/>
<path style=" stroke:none;fill-rule:nonzero;fill:rgb(12.941177%,12.941177%,12.941177%);fill-opacity:1;" d="M 31.753906 5.605469 C 17.726562 5.605469 6.425781 16.902344 6.425781 30.929688 C 6.425781 44.957031 17.726562 56.253906 31.753906 56.253906 C 45.78125 56.253906 57.078125 44.957031 57.078125 30.929688 C 57.078125 16.902344 45.78125 5.605469 31.753906 5.605469 Z M 31.753906 5.980469 C 45.578125 5.980469 56.703125 17.105469 56.703125 30.929688 C 56.703125 44.753906 45.578125 55.878906 31.753906 55.878906 C 17.925781 55.878906 6.800781 44.753906 6.800781 30.929688 C 6.800781 17.105469 17.925781 5.980469 31.753906 5.980469 Z M 31.753906 5.980469 "/>
<path style=" stroke:none;fill-rule:nonzero;fill:url(#linear3);" d="M 18.484375 19.027344 C 17.773438 19.042969 17.199219 19.625 17.199219 20.34375 L 17.199219 24.316406 L 6.117188 24.316406 C 5.578125 26.429688 5.292969 28.644531 5.292969 30.929688 C 5.292969 33.214844 5.578125 35.429688 6.117188 37.542969 L 17.199219 37.542969 L 17.199219 41.515625 C 17.199219 42.652344 18.546875 43.257812 19.398438 42.5 L 31.304688 31.917969 C 31.894531 31.390625 31.894531 30.46875 31.304688 29.941406 L 19.398438 19.359375 C 19.164062 19.152344 18.867188 19.035156 18.554688 19.027344 C 18.53125 19.023438 18.507812 19.023438 18.484375 19.027344 Z M 18.484375 19.027344 "/>
<path style=" stroke:none;fill-rule:nonzero;fill:url(#linear4);" d="M 45.019531 19.027344 C 44.996094 19.023438 44.972656 19.023438 44.949219 19.027344 C 44.640625 19.035156 44.339844 19.152344 44.109375 19.359375 L 32.199219 29.941406 C 31.609375 30.46875 31.609375 31.390625 32.199219 31.917969 L 44.109375 42.5 C 44.960938 43.257812 46.304688 42.652344 46.304688 41.515625 L 46.304688 37.542969 L 57.386719 37.542969 C 57.925781 35.429688 58.214844 33.214844 58.214844 30.929688 C 58.214844 28.644531 57.925781 26.429688 57.386719 24.316406 L 46.304688 24.316406 L 46.304688 20.34375 C 46.304688 19.625 45.730469 19.042969 45.019531 19.027344 Z M 45.019531 19.027344 "/>
<path style=" stroke:none;fill-rule:nonzero;fill:rgb(93.725491%,93.725491%,93.725491%);fill-opacity:0.313726;" d="M 18.484375 19.027344 C 17.773438 19.042969 17.199219 19.625 17.199219 20.34375 L 17.199219 21.335938 C 17.199219 20.617188 17.773438 20.03125 18.484375 20.015625 C 18.507812 20.015625 18.53125 20.015625 18.554688 20.015625 C 18.867188 20.023438 19.164062 20.140625 19.398438 20.347656 L 31.304688 30.933594 C 31.464844 31.074219 31.578125 31.242188 31.652344 31.425781 C 31.855469 30.925781 31.738281 30.328125 31.304688 29.941406 L 19.398438 19.359375 C 19.164062 19.152344 18.867188 19.035156 18.554688 19.027344 C 18.53125 19.023438 18.507812 19.023438 18.484375 19.027344 Z M 6.117188 24.316406 C 5.578125 26.429688 5.292969 28.644531 5.292969 30.929688 C 5.292969 31.09375 5.292969 31.261719 5.296875 31.425781 C 5.335938 29.3125 5.617188 27.265625 6.117188 25.304688 L 17.199219 25.304688 L 17.199219 24.316406 Z M 6.117188 24.316406 "/>
<path style=" stroke:none;fill-rule:nonzero;fill:rgb(93.725491%,93.725491%,93.725491%);fill-opacity:1;" d="M 45.019531 19.027344 C 44.996094 19.023438 44.972656 19.023438 44.949219 19.027344 C 44.640625 19.035156 44.339844 19.152344 44.109375 19.359375 L 32.199219 29.941406 C 31.769531 30.328125 31.652344 30.925781 31.851562 31.425781 C 31.925781 31.242188 32.042969 31.074219 32.199219 30.933594 L 44.109375 20.347656 C 44.339844 20.140625 44.640625 20.023438 44.949219 20.015625 C 44.972656 20.015625 44.996094 20.015625 45.019531 20.015625 C 45.730469 20.03125 46.304688 20.617188 46.304688 21.335938 L 46.304688 20.34375 C 46.304688 19.625 45.730469 19.042969 45.019531 19.027344 Z M 46.304688 24.316406 L 46.304688 25.304688 L 57.386719 25.304688 C 57.886719 27.265625 58.171875 29.3125 58.210938 31.425781 C 58.210938 31.261719 58.214844 31.09375 58.214844 30.929688 C 58.214844 28.644531 57.925781 26.429688 57.386719 24.316406 Z M 46.304688 24.316406 "/>
<path style=" stroke:none;fill-rule:nonzero;fill:rgb(0%,0%,0%);fill-opacity:0.235294;" d="M 31.570312 31.59375 C 31.503906 31.710938 31.414062 31.824219 31.304688 31.917969 L 19.398438 42.503906 C 18.546875 43.261719 17.199219 42.65625 17.199219 41.515625 L 17.199219 42.839844 C 17.199219 43.980469 18.546875 44.582031 19.398438 43.828125 L 31.304688 33.242188 C 31.789062 32.8125 31.875 32.121094 31.570312 31.59375 Z M 7.488281 37.546875 C 7.609375 37.992188 7.742188 38.433594 7.886719 38.867188 L 17.199219 38.867188 L 17.199219 37.546875 Z M 7.488281 37.546875 "/>
<path style=" stroke:none;fill-rule:nonzero;fill:rgb(0%,0%,0%);fill-opacity:0.235294;" d="M 31.933594 31.59375 C 31.628906 32.121094 31.71875 32.8125 32.199219 33.242188 L 44.109375 43.828125 C 44.960938 44.582031 46.304688 43.980469 46.304688 42.839844 L 46.304688 41.515625 C 46.304688 42.65625 44.960938 43.261719 44.109375 42.503906 L 32.199219 31.917969 C 32.09375 31.824219 32.003906 31.710938 31.933594 31.59375 Z M 46.304688 37.546875 L 46.304688 38.867188 L 55.621094 38.867188 C 55.765625 38.433594 55.898438 37.992188 56.019531 37.546875 Z M 46.304688 37.546875 "/>
<path style="fill:none;stroke-width:11.338583;stroke-linecap:round;stroke-linejoin:round;stroke:rgb(12.941177%,12.941177%,12.941177%);stroke-opacity:0.954839;stroke-miterlimit:4;" d="M 558.8443 575.260056 C 537.350289 575.732452 519.989741 593.329198 519.989741 615.059407 L 519.989741 735.166054 L 184.942978 735.166054 C 168.645321 799.057594 160.024097 866.019707 160.024097 935.107601 C 160.024097 1004.195495 168.645321 1071.157608 184.942978 1135.049148 L 519.989741 1135.049148 L 519.989741 1255.155795 C 519.989741 1289.522594 560.733884 1307.827933 586.479458 1284.916734 L 946.445102 964.986639 C 964.278045 949.043279 964.278045 921.171923 946.445102 905.228563 L 586.479458 585.298468 C 579.39352 579.039223 570.417999 575.496254 560.970082 575.260056 C 560.261488 575.141957 559.552894 575.141957 558.8443 575.260056 Z M 558.8443 575.260056 " transform="matrix(0.0330761,0,0,0.0330761,0,0)"/>
<path style="fill:none;stroke-width:3;stroke-linecap:round;stroke-linejoin:round;stroke:rgb(12.941177%,12.941177%,12.941177%);stroke-opacity:0.954839;stroke-miterlimit:4;" d="M 360.12186 -62.795785 C 365.808817 -62.670797 370.402128 -58.014991 370.402128 -52.26554 L 370.402128 -20.487325 L 459.049913 -20.487325 C 463.362001 -3.582689 465.67428 14.134369 465.67428 32.413873 C 465.67428 50.693378 463.362001 68.410436 459.049913 85.315071 L 370.402128 85.315071 L 370.402128 117.093287 C 370.402128 126.186168 359.653155 131.029456 352.841305 124.967535 L 257.569153 40.319368 C 252.850854 36.101021 252.850854 28.726725 257.569153 24.508378 L 352.841305 -60.139788 C 354.684879 -61.79588 357.0909 -62.733291 359.559414 -62.795785 C 359.746896 -62.827032 359.934378 -62.827032 360.12186 -62.795785 Z M 360.12186 -62.795785 " transform="matrix(0.125012,0,0,0.125012,0,26.877566)"/>
</g>
</svg>
